public/assets/images/others/sign.svg

<svg width="142" height="43" viewBox="0 0 142 43" fill="none" xmlns="http://www.w3.org/2000/svg">
<path d="M5.03125 42.7031C2.875 42.7031 1.51562 40.9219 0.953125 37.3594L0.78125 34.3906C0.78125 27.8125 2.625 19.5781 6.29688 9.70312C8.9375 3.48438 11.5156 0.375 14.0156 0.375C16.1562 0.375 17.4844 2.40625 18 6.48438C18 10.1094 17.75 11.9062 17.2344 11.9062H16.8125C16.7344 11.9062 16.6094 11.7969 16.4844 11.5781C16.7031 9.9375 16.8438 8.625 16.9062 7.67188C16.625 3.59375 15.6875 1.5625 14.1094 1.5625H13.8438C12.125 1.5625 10.1094 4.10938 7.82812 9.20312C6.75 11.3438 5.42188 15.3281 3.84375 21.1562C2.59375 26.6562 1.96875 31.0938 1.96875 34.4844C1.96875 39.1719 2.98438 41.5156 5.03125 41.5156C8.53125 41.5156 14.5781 35.2969 23.1719 22.8594L23.6094 22.7656C23.9375 22.7656 24.1094 22.9688 24.1094 23.3594V23.5312C15.4062 36.2344 9.04688 42.625 5.03125 42.7031ZM27.0781 22.8438C26.7969 22.8438 26.5938 22.6406 26.5 22.25C26.5781 21.9531 26.9531 21.5312 27.5781 21H28C28.2188 21.0938 28.3281 21.3438 28.3281 21.75C27.7812 22.4688 27.3594 22.8438 27.0781 22.8438ZM27 30.8438C26 30.6562 25.5 30.0156 25.5 28.9219V28.4219C25.5 27.125 25.8281 25.5625 26.5 23.75L26.9219 23.6719H27.0781C27.2812 23.7812 27.4219 23.9375 27.5 24.1719C26.9375 26 26.6719 27.3594 26.6719 28.25C26.6719 28.3594 26.6406 28.4219 26.5781 28.4219C26.6562 29.25 26.7969 29.6719 27 29.6719C28.0469 29.6719 30.125 27.7812 33.25 24L33.5781 23.9219C33.8125 24 33.9844 24.1406 34.0781 24.3438C34.0781 25 32.5 26.8438 29.3281 29.8438C28.2812 30.5 27.5 30.8438 27 30.8438ZM34.5938 30H34.2656C33.4531 30 32.875 29.5312 32.5156 28.5938C32.4531 28.2812 32.4375 27.875 32.4375 27.3438C32.4375 25.7344 33.2031 23.9844 34.7656 22.0938C35.4062 21.5312 35.9688 21.25 36.4375 21.25H36.8438C37.4844 21.25 38 21.75 38.4375 22.75V22.9219C38.2812 23.2031 38.0625 23.3438 37.7656 23.3438C37.1562 22.6719 36.7656 22.3438 36.5938 22.3438C35.6094 22.3438 34.6406 23.7031 33.6875 26.4219C33.5625 27.1094 33.5156 27.5312 33.5156 27.6719C33.5156 28.5 33.8125 28.9219 34.4375 28.9219C35.8438 28.9219 38.3906 27.2812 42.0938 24L42.4375 23.9219C42.7656 24.0312 42.9375 24.2812 42.9375 24.6719C39.1562 28.2188 36.375 30 34.5938 30ZM41.0469 32.75C40.7188 32.625 40.5469 32.4531 40.5469 32.25C44.1875 11.8594 46.9375 1.67188 48.7969 1.67188C49.5156 1.67188 49.875 2.17188 49.875 3.17188C49.875 4.89062 48.125 9.45312 44.625 16.8438C43.2344 23.4531 42.5469 26.9375 42.5469 27.25H42.625C44.4062 23.4688 45.9062 21.5938 47.125 21.5938C48.25 21.5938 48.8906 22.3594 49.0469 23.9219C49.0469 24.7812 48.9844 26.1406 48.875 28C49.4688 27.7188 50.75 26.4062 52.7188 24.0938C52.7188 23.9688 52.875 23.9219 53.2188 23.9219C53.4844 24.0625 53.625 24.2812 53.625 24.5938C51.2344 27.6406 49.6406 29.1719 48.875 29.1719H48.7188C48.2031 29.1719 47.8906 28.75 47.7969 27.9219L48.0469 24.3438C48.0469 23.2812 47.7656 22.75 47.2188 22.75C46.3125 22.75 44.875 24.8906 42.875 29.1719C42.0312 31.2188 41.5312 32.375 41.375 32.6719L41.0469 32.75ZM46.0469 11.25C47.875 7.01562 48.7969 4.23438 48.7969 2.92188H48.7188C47.9844 4.09375 47.0781 6.84375 45.9688 11.1719V11.25H46.0469ZM56.8438 30.5C56.2344 30.5 55.875 30.0938 55.75 29.25C55.75 28.2188 55.9219 27.0781 56.25 25.8438V25.75H56.1719C55.9062 26.1719 55.2344 26.7812 54.1719 27.5938L53.5938 27.75C52.8125 27.75 52.4219 27.1406 52.4219 25.9219C52.4219 24.1562 53.2031 22.6094 54.75 21.25C55.2969 21.0312 55.6875 20.9219 55.9219 20.9219C57.1406 21.1719 57.75 21.5938 57.75 22.1719C57.6406 22.5 57.4219 22.6719 57.0938 22.6719C56.5312 22.2812 56.1406 22.0938 55.9219 22.0938C54.8594 22.0938 54.0781 23.3125 53.5938 25.75V26.5C53.8438 26.5 55.0938 25.3438 57.3438 23H57.75C57.8438 23 57.9531 23.1094 58.0938 23.3438V23.5C57.25 26.3281 56.8438 28.1562 56.8438 29C56.8906 29.0938 56.9219 29.2188 56.9219 29.3438H57C58.1719 28.4219 59.2188 27.1719 60.1719 25.5938C60.7031 24.4219 61.1562 23.8438 61.5 23.8438C61.8906 23.8438 62.0938 24 62.0938 24.3438C61.3594 26.125 59.9688 28.0625 57.9219 30.1719C57.4062 30.3906 57.0469 30.5 56.8438 30.5ZM62.3125 30.25C61.4531 30.25 60.875 29.5 60.5625 28V27.3438C60.5625 24.8281 61.375 22.6094 62.9844 20.6719L63.8906 20.3438C64.7812 20.5 65.2344 20.9531 65.2344 21.6719C65.2344 22.5312 64.1406 23.7031 61.9844 25.1719C61.8125 25.9531 61.7344 26.7812 61.7344 27.6719C61.7344 28.4062 61.9219 28.8906 62.3125 29.0938H62.6406C63.9531 29.0938 66.0625 27.4219 68.9844 24.0938C69.0781 24.0312 69.1875 24 69.3125 24C69.6406 24.125 69.8125 24.3438 69.8125 24.6719C67.9531 27.1719 66 28.9219 63.9844 29.9219C63.3438 30.1406 62.7812 30.25 62.3125 30.25ZM62.6406 23.25C62.8438 23.25 63.3125 22.7812 64.0625 21.8438V21.6719C64.0625 21.5625 64.0156 21.5 63.8906 21.5C63.5 21.6406 63.0781 22.2188 62.6406 23.25ZM70.7969 30.3438C69.5469 30.1094 68.9219 29.0781 68.9219 27.2812V26.7656C68.9219 22.1406 70.7344 14.9688 74.375 5.23438C75.375 3.03125 76.2031 1.92188 76.8438 1.92188H77.0156C77.5156 2.1875 77.7812 2.67188 77.7812 3.375C77.7812 5.23438 75.7031 9.78125 71.5625 16.9844C70.4219 21.5156 69.8594 24.7812 69.8594 26.7656C69.9688 28.3594 70.2344 29.1562 70.625 29.1562H70.7969C71.7812 29.1562 73.5938 27.5938 76.25 24.4688L76.4062 24.3906C76.75 24.5312 76.9219 24.7344 76.9219 24.9844C76.2812 26.2656 74.7812 27.8438 72.4062 29.75C71.7031 30.1406 71.1562 30.3438 70.7969 30.3438ZM73.0156 12.3906C75.5 7.60938 76.75 4.54688 76.75 3.20312C75.5938 4.76562 74.3125 7.79688 72.9219 12.2969V12.3906H73.0156ZM90.5156 41.1719L90.0781 41.125C87.9375 40.9062 86.2188 38.7969 84.8906 34.8281C84.3906 33.0312 84.2344 31.1562 84.4375 29.1875C85.0625 23.3594 88.9844 19.2031 96.2344 16.7188L100.531 15.7812C101.422 11.6406 102.016 8.28125 102.297 5.67188C102.531 3.35938 102.344 2.17188 101.703 2.10938L101.359 2.07812C100.078 1.9375 98.7656 3.04688 97.4219 5.42188C97.2031 5.875 97.1562 6.67188 97.2656 7.79688C97.3906 8.92188 97.2031 9.57812 96.7188 9.76562C96.2344 9.96875 95.9375 8.95312 95.8125 6.73438C96.0469 4.45312 97.4062 2.625 99.875 1.21875C100.531 0.9375 101.047 0.828125 101.406 0.859375L101.828 0.90625C103.047 1.03125 103.625 2.10938 103.578 4.14062L103.297 6.90625C103.031 9.34375 102.531 12.25 101.766 15.6562C103.016 15.4844 104.078 15.3906 104.938 15.3594C105.375 15.6875 105.406 16.0625 105.062 16.4688C102.875 16.6562 101.672 16.8281 101.438 17.0156C100.078 22.9531 98.7344 27.7188 97.4062 31.3438C94.8281 38.1094 92.5312 41.3906 90.5156 41.1719ZM90.375 40.0312C92.6875 40.2656 95.6094 34.1406 99.125 21.6562C99.8125 18.9375 100.172 17.4062 100.219 17.0625C94.5781 18.1094 90.6562 20.0469 88.4219 22.8906C86.8281 24.8125 85.9062 26.875 85.6875 29.0469L85.6094 29.75C85.2656 33.0312 86.1094 36 88.1562 38.6562C88.9531 39.5 89.6875 39.9531 90.375 40.0312ZM106.969 30.5C106.359 30.5 106 30.0938 105.875 29.25C105.875 28.2188 106.047 27.0781 106.375 25.8438V25.75H106.297C106.031 26.1719 105.359 26.7812 104.297 27.5938L103.719 27.75C102.938 27.75 102.547 27.1406 102.547 25.9219C102.547 24.1562 103.328 22.6094 104.875 21.25C105.422 21.0312 105.812 20.9219 106.047 20.9219C107.266 21.1719 107.875 21.5938 107.875 22.1719C107.766 22.5 107.547 22.6719 107.219 22.6719C106.656 22.2812 106.266 22.0938 106.047 22.0938C104.984 22.0938 104.203 23.3125 103.719 25.75V26.5C103.969 26.5 105.219 25.3438 107.469 23H107.875C107.969 23 108.078 23.1094 108.219 23.3438V23.5C107.375 26.3281 106.969 28.1562 106.969 29C107.016 29.0938 107.047 29.2188 107.047 29.3438H107.125C108.297 28.4219 109.344 27.1719 110.297 25.5938C110.828 24.4219 111.281 23.8438 111.625 23.8438C112.016 23.8438 112.219 24 112.219 24.3438C111.484 26.125 110.094 28.0625 108.047 30.1719C107.531 30.3906 107.172 30.5 106.969 30.5ZM110.609 31.4219H110.188C110.109 31.4219 109.984 31.3125 109.859 31.0938C110.625 26.25 111.156 23.8438 111.438 23.8438H111.688C111.906 23.8438 112.078 23.9531 112.188 24.1719C112.188 24.5781 112.109 25.1562 111.938 25.9219V26H112.016C112.656 24.4219 113.406 23.1719 114.266 22.25L114.516 22.0938H114.766C115.438 22.0938 115.797 22.6406 115.859 23.75V26.0938C116.125 25.7656 116.797 24.5781 117.859 22.5C118.281 21.7812 118.688 21.4219 119.109 21.4219C119.656 21.4219 119.953 21.8594 120.016 22.75C119.75 25.0938 119.609 26.6719 119.609 27.5C119.625 27.7812 119.672 27.9219 119.766 27.9219C120.188 27.9219 121.547 26.5625 123.859 23.8438H124.266C124.547 24 124.688 24.2031 124.688 24.4219C122.406 27.5312 120.719 29.0938 119.609 29.0938C118.828 29.0938 118.438 28.4219 118.438 27.0938C118.5 26.0781 118.625 24.7656 118.859 23.1719C117.594 25.4688 116.766 26.875 116.359 27.4219C116.016 27.5938 115.797 27.6719 115.688 27.6719C115.016 27.6719 114.688 27.1094 114.688 26L114.766 23.75C114.719 23.6406 114.688 23.5625 114.688 23.5C113.531 25.2656 112.25 27.8438 110.859 31.25L110.609 31.4219ZM124.844 30.25C123.984 30.25 123.406 29.5 123.094 28V27.3438C123.094 24.8281 123.906 22.6094 125.516 20.6719L126.422 20.3438C127.312 20.5 127.766 20.9531 127.766 21.6719C127.766 22.5312 126.672 23.7031 124.516 25.1719C124.344 25.9531 124.266 26.7812 124.266 27.6719C124.266 28.4062 124.453 28.8906 124.844 29.0938H125.172C126.484 29.0938 128.594 27.4219 131.516 24.0938C131.609 24.0312 131.719 24 131.844 24C132.172 24.125 132.344 24.3438 132.344 24.6719C130.484 27.1719 128.531 28.9219 126.516 29.9219C125.875 30.1406 125.312 30.25 124.844 30.25ZM125.172 23.25C125.375 23.25 125.844 22.7812 126.594 21.8438V21.6719C126.594 21.5625 126.547 21.5 126.422 21.5C126.031 21.6406 125.609 22.2188 125.172 23.25ZM130.812 38.4219H130.641C129.984 38.2812 129.641 37.9531 129.641 37.4219V37.0781C129.641 35.6875 130.844 33.4375 133.234 30.3438C131.844 26.2812 131.141 23.6875 131.141 22.5938C131.141 20.7656 132.203 19.75 134.312 19.5C135.812 19.75 136.562 20.1875 136.562 20.8438C136.453 21.1719 136.219 21.3438 135.891 21.3438C135.312 20.8906 134.734 20.6719 134.141 20.6719C133.016 20.6719 132.406 21.3125 132.312 22.5938C132.312 23.6562 132.891 25.8438 134.062 29.1719H134.141C136.828 26.1406 139.062 24.3281 140.812 23.75C141.203 23.75 141.391 23.9531 141.391 24.3438C141.391 24.625 140.781 25.0625 139.562 25.6719C137.5 27.1562 135.812 28.7969 134.484 30.5938V30.6719C134.703 31.6875 134.812 32.6562 134.812 33.5781C134.812 36.125 133.484 37.7344 130.812 38.4219ZM130.734 37.25C132.734 36.7344 133.734 35.4531 133.734 33.4219L133.562 31.75H133.484C131.688 34.4219 130.766 36.2656 130.734 37.25Z" fill="#050D20"/>
</svg>

<svg xmlns="http://www.w3.org/2000/svg" width="142" height="43" fill="none" viewBox="0 0 142 43"><path fill="#050d20" d="M5.031 42.703q-3.234 0-4.078-5.344l-.172-2.968c0-6.578 1.844-14.813 5.516-24.688C8.937 3.484 11.516.375 14.016.375c2.14 0 3.468 2.031 3.984 6.11 0 3.624-.25 5.421-.766 5.421h-.422c-.078 0-.203-.11-.328-.328.22-1.64.36-2.953.422-3.906-.281-4.078-1.218-6.11-2.797-6.11h-.265c-1.719 0-3.735 2.547-6.016 7.641q-1.617 3.21-3.984 11.953c-1.25 5.5-1.875 9.938-1.875 13.328 0 4.688 1.015 7.032 3.062 7.032q5.25 0 18.14-18.657l.438-.093c.328 0 .5.203.5.593v.172Q11.055 42.586 5.031 42.703m22.047-19.86c-.281 0-.484-.202-.578-.593.078-.297.453-.719 1.078-1.25H28q.328.141.328.75c-.547.719-.969 1.094-1.25 1.094m-.078 8q-1.5-.28-1.5-1.921v-.5c0-1.297.328-2.86 1-4.672l.422-.078h.156c.203.11.344.265.422.5-.562 1.828-.828 3.187-.828 4.078 0 .11-.031.172-.094.172.078.828.219 1.25.422 1.25 1.047 0 3.125-1.89 6.25-5.672l.328-.078a.8.8 0 0 1 .5.422c0 .656-1.578 2.5-4.75 5.5-1.047.656-1.828 1-2.328 1M34.594 30h-.328c-.813 0-1.391-.469-1.75-1.406-.063-.313-.078-.719-.078-1.25 0-1.61.765-3.36 2.328-5.25.64-.563 1.203-.844 1.672-.844h.406c.64 0 1.156.5 1.593 1.5v.172c-.156.281-.374.422-.671.422-.61-.672-1-1-1.172-1q-1.477 0-2.907 4.078c-.124.687-.171 1.11-.171 1.25 0 .828.297 1.25.922 1.25 1.406 0 3.953-1.64 7.656-4.922l.343-.078c.329.11.5.36.5.75C39.158 28.219 36.376 30 34.595 30m6.453 2.75c-.328-.125-.5-.297-.5-.5 3.64-20.39 6.39-30.578 8.25-30.578q1.078 0 1.078 1.5c0 1.719-1.75 6.281-5.25 13.672-1.39 6.61-2.078 10.093-2.078 10.406h.078c1.781-3.781 3.281-5.656 4.5-5.656 1.125 0 1.766.765 1.922 2.328 0 .86-.063 2.219-.172 4.078.594-.281 1.875-1.594 3.844-3.906 0-.125.156-.172.5-.172a.71.71 0 0 1 .406.672c-2.39 3.047-3.984 4.578-4.75 4.578h-.156c-.516 0-.828-.422-.922-1.25l.25-3.578c0-1.063-.281-1.594-.828-1.594-.907 0-2.344 2.14-4.344 6.422-.844 2.047-1.344 3.203-1.5 3.5zm5-21.5c1.828-4.234 2.75-7.016 2.75-8.328h-.078c-.735 1.172-1.64 3.922-2.75 8.25v.078zM56.844 30.5c-.61 0-.969-.406-1.094-1.25 0-1.031.172-2.172.5-3.406v-.094h-.078c-.266.422-.938 1.031-2 1.844l-.578.156q-1.172 0-1.172-1.828c0-1.766.781-3.313 2.328-4.672q.82-.328 1.172-.328c1.219.25 1.828.672 1.828 1.25-.11.328-.328.5-.656.5-.563-.39-.953-.578-1.172-.578-1.063 0-1.844 1.218-2.328 3.656v.75c.25 0 1.5-1.156 3.75-3.5h.406c.094 0 .203.11.344.344v.156c-.844 2.828-1.25 4.656-1.25 5.5a.8.8 0 0 1 .078.344H57c1.172-.922 2.219-2.172 3.172-3.75.531-1.172.984-1.75 1.328-1.75.39 0 .594.156.594.5-.735 1.781-2.125 3.718-4.172 5.828q-.774.328-1.078.328m5.468-.25c-.859 0-1.437-.75-1.75-2.25v-.656c0-2.516.813-4.735 2.422-6.672l.907-.328c.89.156 1.343.61 1.343 1.328 0 .86-1.093 2.031-3.25 3.5a11.6 11.6 0 0 0-.25 2.5c0 .734.188 1.219.578 1.422h.329c1.312 0 3.422-1.672 6.343-5a.6.6 0 0 1 .329-.094c.328.125.5.344.5.672-1.86 2.5-3.813 4.25-5.829 5.25-.64.219-1.203.328-1.672.328m.329-7c.203 0 .672-.469 1.422-1.406v-.172c0-.11-.047-.172-.172-.172-.391.14-.813.719-1.25 1.75m8.156 7.094c-1.25-.235-1.875-1.266-1.875-3.063v-.515c0-4.625 1.812-11.797 5.453-21.532 1-2.203 1.828-3.312 2.469-3.312h.172c.5.266.765.75.765 1.453 0 1.86-2.078 6.406-6.219 13.61-1.14 4.53-1.703 7.796-1.703 9.78.11 1.594.375 2.391.766 2.391h.172c.984 0 2.797-1.562 5.453-4.687l.156-.078c.344.14.516.343.516.593-.64 1.282-2.14 2.86-4.516 4.766-.703.39-1.25.594-1.61.594m2.219-17.953C75.5 7.609 76.75 4.547 76.75 3.203c-1.156 1.563-2.437 4.594-3.828 9.094v.094zm17.5 28.78-.438-.046c-2.14-.219-3.86-2.328-5.187-6.297-.5-1.797-.657-3.672-.454-5.64.626-5.829 4.547-9.985 11.797-12.47l4.297-.937c.891-4.14 1.485-7.5 1.766-10.11.234-2.312.047-3.5-.594-3.562l-.344-.03c-1.281-.142-2.593.968-3.937 3.343-.219.453-.266 1.25-.156 2.375.125 1.125-.063 1.781-.547 1.969-.485.203-.781-.813-.906-3.032.234-2.28 1.593-4.109 4.062-5.515.656-.282 1.172-.39 1.531-.36l.422.047c1.219.125 1.797 1.203 1.75 3.235l-.281 2.765c-.266 2.438-.766 5.344-1.531 8.75a32 32 0 0 1 3.172-.297c.437.329.468.704.124 1.11-2.187.187-3.39.36-3.624.547-1.36 5.937-2.704 10.703-4.032 14.328-2.578 6.765-4.875 10.047-6.89 9.828m-.141-1.14c2.313.235 5.234-5.89 8.75-18.375.688-2.718 1.047-4.25 1.094-4.593-5.64 1.046-9.563 2.984-11.797 5.828-1.594 1.922-2.516 3.984-2.734 6.156l-.079.703c-.343 3.281.5 6.25 2.547 8.906.797.844 1.531 1.297 2.219 1.375m16.594-9.531c-.61 0-.969-.406-1.094-1.25 0-1.031.172-2.172.5-3.406v-.094h-.078c-.266.422-.938 1.031-2 1.844l-.578.156q-1.172 0-1.172-1.828c0-1.766.781-3.313 2.328-4.672q.82-.328 1.172-.328c1.219.25 1.828.672 1.828 1.25-.109.328-.328.5-.656.5-.563-.39-.953-.578-1.172-.578-1.063 0-1.844 1.218-2.328 3.656v.75c.25 0 1.5-1.156 3.75-3.5h.406c.094 0 .203.11.344.344v.156c-.844 2.828-1.25 4.656-1.25 5.5a.8.8 0 0 1 .078.344h.078c1.172-.922 2.219-2.172 3.172-3.75.531-1.172.984-1.75 1.328-1.75.391 0 .594.156.594.5-.735 1.781-2.125 3.718-4.172 5.828q-.774.328-1.078.328m3.64.922h-.421c-.079 0-.204-.11-.329-.328.766-4.844 1.297-7.25 1.579-7.25h.25c.218 0 .39.11.5.328 0 .406-.079.984-.25 1.75V26h.078q.96-2.367 2.25-3.75l.25-.156h.25c.672 0 1.031.547 1.093 1.656v2.344c.266-.328.938-1.516 2-3.594.422-.719.829-1.078 1.25-1.078.547 0 .844.437.907 1.328-.266 2.344-.407 3.922-.407 4.75.016.281.063.422.157.422.422 0 1.781-1.36 4.093-4.078h.407c.281.156.422.36.422.578-2.282 3.11-3.969 4.672-5.079 4.672-.781 0-1.171-.672-1.171-2 .062-1.016.187-2.328.421-3.922-1.265 2.297-2.093 3.703-2.5 4.25-.343.172-.562.25-.671.25-.672 0-1-.563-1-1.672l.078-2.25a.7.7 0 0 1-.078-.25c-1.157 1.766-2.438 4.344-3.829 7.75zm14.235-1.172c-.86 0-1.438-.75-1.75-2.25v-.656c0-2.516.812-4.735 2.422-6.672l.906-.328c.89.156 1.344.61 1.344 1.328 0 .86-1.094 2.031-3.25 3.5-.172.781-.25 1.61-.25 2.5 0 .734.187 1.219.578 1.422h.328c1.312 0 3.422-1.672 6.344-5a.57.57 0 0 1 .328-.094c.328.125.5.344.5.672-1.86 2.5-3.813 4.25-5.828 5.25-.641.219-1.204.328-1.672.328m.328-7c.203 0 .672-.469 1.422-1.406v-.172c0-.11-.047-.172-.172-.172-.391.14-.813.719-1.25 1.75m5.64 15.172h-.171c-.657-.14-1-.469-1-1v-.344c0-1.39 1.203-3.64 3.593-6.734-1.39-4.063-2.093-6.657-2.093-7.75 0-1.828 1.062-2.844 3.171-3.094 1.5.25 2.25.688 2.25 1.344-.109.328-.343.5-.671.5-.579-.453-1.157-.672-1.75-.672q-1.688 0-1.829 1.922c0 1.062.579 3.25 1.75 6.578h.079c2.687-3.031 4.921-4.844 6.671-5.422.391 0 .579.203.579.594 0 .281-.61.718-1.829 1.328-2.062 1.484-3.75 3.125-5.078 4.922v.078q.328 1.523.328 2.906c0 2.547-1.328 4.156-4 4.844m-.078-1.172c2-.516 3-1.797 3-3.828l-.172-1.672h-.078c-1.796 2.672-2.718 4.516-2.75 5.5"/></svg>
